wasm-dist/composeResources/companion.composeapp.generated.resources/drawable/o2_svg.svg

<svg xmlns="http://www.w3.org/2000/svg" xmlns:v="https://svgstorm.com"
viewBox = "0 0 1080 967"
width="1080"
height="967">
<g fill="None" fill-opacity="0.0" stroke="#000000" stroke-opacity="0.00" stroke-width="0.3"><path d="
M 0.00 967.00 
L 1080.00 967.00
L 1080.00 0.00
L 0.00 0.00
L 0.00 967.00
M 433.00 233.00 
C 384.21 236.43 339.72 269.42 317.08 312.08 C 262.74 415.70 262.27 556.46 319.25 659.75 C 344.42 702.42 388.49 735.00 439.02 735.98 C 453.01 734.62 446.93 754.97 450.00 764.00 C 451.79 774.24 456.12 787.61 451.90 796.90 C 436.29 787.99 414.22 771.12 396.75 787.75 C 368.95 816.85 369.49 875.18 395.23 905.77 C 403.39 913.98 416.59 912.61 427.22 911.22 C 437.38 909.64 443.09 898.32 453.00 897.00
C 454.19 909.00 451.51 921.65 449.67 933.67 C 446.73 944.13 451.97 965.90 434.00 961.00 C 233.33 962.83 61.93 793.25 24.01 603.99 C -27.44 394.99 60.95 155.43 255.25 53.25 C 307.17 26.74 363.45 11.82 422.02 7.02 C 440.88 2.87 428.74 24.94 430.00 35.00 C 425.09 54.56 421.74 95.96 453.02 90.02 C 463.42 87.98 469.58 77.72 479.22 74.22 C 492.80 70.63 499.03 85.40 499.98 96.02 C 504.45 117.79 506.72 148.43 488.92 163.92 C 477.51 168.55 469.31 156.33 460.30 151.70 C 451.39 145.61 436.56 146.34 431.08 157.08 C 421.08 181.38 432.96 207.83 433.00 233.00
M 447.00 70.00 
C 448.65 48.84 450.65 27.76 454.00 7.00
C 660.81 8.83 835.53 186.45 867.00 384.00 C 914.53 608.58 796.76 865.71 574.32 940.32 C 543.63 950.35 510.56 958.08 477.00 960.00 C 460.87 965.85 469.82 944.60 469.98 935.98 C 472.42 916.44 481.17 887.14 458.77 876.23 C 438.77 867.94 422.33 906.41 405.23 886.77 C 394.26 867.00 395.91 840.95 400.00 819.00 C 401.89 809.66 409.77 797.09 421.07 801.93 C 433.87 814.34 462.10 828.65 470.31 804.31 C 478.37 781.35 466.75 757.43 467.33 734.33 C 563.85 714.57 603.64 607.04 608.00 519.00 C 614.48 424.17 599.28 315.23 519.92 256.08 C 503.17 243.63 483.56 236.49 462.99 234.01 C 447.74 235.26 454.27 215.83 450.22 206.78 C 450.14 194.53 447.69 183.05 447.00 171.00 C 454.91 167.02 462.35 181.86 471.68 182.32 C 508.74 196.71 524.89 149.89 523.00 121.00 C 524.93 91.72 510.93 44.09 472.93 55.93 C 463.72 58.78 456.76 66.53 447.97 69.97
M 1073.00 961.00 
C 1003.25 960.86 937.63 963.19 867.00 961.00 C 851.36 962.73 863.19 943.36 862.00 935.00 C 882.07 865.36 948.22 825.35 993.30 772.30 C 1011.05 751.41 1016.26 711.39 990.25 694.75 C 961.88 678.53 925.64 702.62 929.00 735.00 C 929.70 748.90 910.44 738.71 902.33 739.67 C 891.12 738.92 880.27 736.64 869.00 736.00 C 858.44 732.42 868.38 716.45 867.98 707.98 C 886.08 617.19 1037.62 609.89 1067.78 695.22 C 1093.16 763.05 1037.18 821.43 990.25 862.25 C 977.85 873.14 963.91 886.29 954.41 899.75 C 962.90 905.62 976.34 898.97 987.00 901.00 C 1011.67 901.00 1036.33 901.00 1061.00 901.00 C 1078.22 896.16 1072.03 915.71 1073.00 926.00 C 1072.65 937.68 1073.52 950.04 1073.00 961.00 Z"/>
</g>
<g fill="None" fill-opacity="0.0" stroke="#9E1427" stroke-opacity="0.99" stroke-width="0.3"><path d="
M 433.00 233.00 
C 432.96 207.83 421.08 181.38 431.08 157.08 C 436.56 146.34 451.39 145.61 460.30 151.70 C 469.31 156.33 477.51 168.55 488.92 163.92 C 506.72 148.43 504.45 117.79 499.98 96.02 C 499.03 85.40 492.80 70.63 479.22 74.22 C 469.58 77.72 463.42 87.98 453.02 90.02 C 421.74 95.96 425.09 54.56 430.00 35.00 C 428.74 24.94 440.88 2.87 422.02 7.02 C 363.45 11.82 307.17 26.74 255.25 53.25 C 60.95 155.43 -27.44 394.99 24.01 603.99 C 61.93 793.25 233.33 962.83 434.00 961.00 C 451.97 965.90 446.73 944.13 449.67 933.67 C 451.51 921.65 454.19 909.00 453.00 897.00
C 443.09 898.32 437.38 909.64 427.22 911.22 C 416.59 912.61 403.39 913.98 395.23 905.77 C 369.49 875.18 368.95 816.85 396.75 787.75 C 414.22 771.12 436.29 787.99 451.90 796.90 C 456.12 787.61 451.79 774.24 450.00 764.00 C 446.93 754.97 453.01 734.62 439.02 735.98 C 388.49 735.00 344.42 702.42 319.25 659.75 C 262.27 556.46 262.74 415.70 317.08 312.08 C 339.72 269.42 384.21 236.43 433.00 233.00 Z"/>
</g>
<g fill="None" fill-opacity="0.0" stroke="#9E1427" stroke-opacity="0.99" stroke-width="0.3"><path d="
M 447.97 69.97 
C 456.76 66.53 463.72 58.78 472.93 55.93 C 510.93 44.09 524.93 91.72 523.00 121.00 C 524.89 149.89 508.74 196.71 471.68 182.32 C 462.35 181.86 454.91 167.02 447.00 171.00 C 447.69 183.05 450.14 194.53 450.22 206.78 C 454.27 215.83 447.74 235.26 462.99 234.01 C 483.56 236.49 503.17 243.63 519.92 256.08 C 599.28 315.23 614.48 424.17 608.00 519.00 C 603.64 607.04 563.85 714.57 467.33 734.33 C 466.75 757.43 478.37 781.35 470.31 804.31 C 462.10 828.65 433.87 814.34 421.07 801.93 C 409.77 797.09 401.89 809.66 400.00 819.00 C 395.91 840.95 394.26 867.00 405.23 886.77 C 422.33 906.41 438.77 867.94 458.77 876.23 C 481.17 887.14 472.42 916.44 469.98 935.98 C 469.82 944.60 460.87 965.85 477.00 960.00 C 510.56 958.08 543.63 950.35 574.32 940.32 C 796.76 865.71 914.53 608.58 867.00 384.00 C 835.53 186.45 660.81 8.83 454.00 7.00
C 450.65 27.76 448.65 48.84 447.00 70.00 Z"/>
</g>
<g fill="None" fill-opacity="0.0" stroke="#9E1427" stroke-opacity="0.95" stroke-width="0.3"><path d="
M 1073.00 961.00 
C 1073.52 950.04 1072.65 937.68 1073.00 926.00 C 1072.03 915.71 1078.22 896.16 1061.00 901.00 C 1036.33 901.00 1011.67 901.00 987.00 901.00 C 976.34 898.97 962.90 905.62 954.41 899.75 C 963.91 886.29 977.85 873.14 990.25 862.25 C 1037.18 821.43 1093.16 763.05 1067.78 695.22 C 1037.62 609.89 886.08 617.19 867.98 707.98 C 868.38 716.45 858.44 732.42 869.00 736.00 C 880.27 736.64 891.12 738.92 902.33 739.67 C 910.44 738.71 929.70 748.90 929.00 735.00 C 925.64 702.62 961.88 678.53 990.25 694.75 C 1016.26 711.39 1011.05 751.41 993.30 772.30 C 948.22 825.35 882.07 865.36 862.00 935.00 C 863.19 943.36 851.36 962.73 867.00 961.00 C 937.63 963.19 1003.25 960.86 1073.00 961.00 Z"/>
</g>
<g fill="#000000" fill-opacity="0.00" stroke="None"><path d="
M 0.00 967.00 
L 1080.00 967.00
L 1080.00 0.00
L 0.00 0.00
L 0.00 967.00
M 433.00 233.00 
C 384.21 236.43 339.72 269.42 317.08 312.08 C 262.74 415.70 262.27 556.46 319.25 659.75 C 344.42 702.42 388.49 735.00 439.02 735.98 C 453.01 734.62 446.93 754.97 450.00 764.00 C 451.79 774.24 456.12 787.61 451.90 796.90 C 436.29 787.99 414.22 771.12 396.75 787.75 C 368.95 816.85 369.49 875.18 395.23 905.77 C 403.39 913.98 416.59 912.61 427.22 911.22 C 437.38 909.64 443.09 898.32 453.00 897.00
C 454.19 909.00 451.51 921.65 449.67 933.67 C 446.73 944.13 451.97 965.90 434.00 961.00 C 233.33 962.83 61.93 793.25 24.01 603.99 C -27.44 394.99 60.95 155.43 255.25 53.25 C 307.17 26.74 363.45 11.82 422.02 7.02 C 440.88 2.87 428.74 24.94 430.00 35.00 C 425.09 54.56 421.74 95.96 453.02 90.02 C 463.42 87.98 469.58 77.72 479.22 74.22 C 492.80 70.63 499.03 85.40 499.98 96.02 C 504.45 117.79 506.72 148.43 488.92 163.92 C 477.51 168.55 469.31 156.33 460.30 151.70 C 451.39 145.61 436.56 146.34 431.08 157.08 C 421.08 181.38 432.96 207.83 433.00 233.00
M 447.00 70.00 
C 448.65 48.84 450.65 27.76 454.00 7.00
C 660.81 8.83 835.53 186.45 867.00 384.00 C 914.53 608.58 796.76 865.71 574.32 940.32 C 543.63 950.35 510.56 958.08 477.00 960.00 C 460.87 965.85 469.82 944.60 469.98 935.98 C 472.42 916.44 481.17 887.14 458.77 876.23 C 438.77 867.94 422.33 906.41 405.23 886.77 C 394.26 867.00 395.91 840.95 400.00 819.00 C 401.89 809.66 409.77 797.09 421.07 801.93 C 433.87 814.34 462.10 828.65 470.31 804.31 C 478.37 781.35 466.75 757.43 467.33 734.33 C 563.85 714.57 603.64 607.04 608.00 519.00 C 614.48 424.17 599.28 315.23 519.92 256.08 C 503.17 243.63 483.56 236.49 462.99 234.01 C 447.74 235.26 454.27 215.83 450.22 206.78 C 450.14 194.53 447.69 183.05 447.00 171.00 C 454.91 167.02 462.35 181.86 471.68 182.32 C 508.74 196.71 524.89 149.89 523.00 121.00 C 524.93 91.72 510.93 44.09 472.93 55.93 C 463.72 58.78 456.76 66.53 447.97 69.97
M 1073.00 961.00 
C 1003.25 960.86 937.63 963.19 867.00 961.00 C 851.36 962.73 863.19 943.36 862.00 935.00 C 882.07 865.36 948.22 825.35 993.30 772.30 C 1011.05 751.41 1016.26 711.39 990.25 694.75 C 961.88 678.53 925.64 702.62 929.00 735.00 C 929.70 748.90 910.44 738.71 902.33 739.67 C 891.12 738.92 880.27 736.64 869.00 736.00 C 858.44 732.42 868.38 716.45 867.98 707.98 C 886.08 617.19 1037.62 609.89 1067.78 695.22 C 1093.16 763.05 1037.18 821.43 990.25 862.25 C 977.85 873.14 963.91 886.29 954.41 899.75 C 962.90 905.62 976.34 898.97 987.00 901.00 C 1011.67 901.00 1036.33 901.00 1061.00 901.00 C 1078.22 896.16 1072.03 915.71 1073.00 926.00 C 1072.65 937.68 1073.52 950.04 1073.00 961.00 Z"/>
</g>
<g fill="#9E1427" fill-opacity="0.99" stroke="None"><path d="
M 433.00 233.00 
C 432.96 207.83 421.08 181.38 431.08 157.08 C 436.56 146.34 451.39 145.61 460.30 151.70 C 469.31 156.33 477.51 168.55 488.92 163.92 C 506.72 148.43 504.45 117.79 499.98 96.02 C 499.03 85.40 492.80 70.63 479.22 74.22 C 469.58 77.72 463.42 87.98 453.02 90.02 C 421.74 95.96 425.09 54.56 430.00 35.00 C 428.74 24.94 440.88 2.87 422.02 7.02 C 363.45 11.82 307.17 26.74 255.25 53.25 C 60.95 155.43 -27.44 394.99 24.01 603.99 C 61.93 793.25 233.33 962.83 434.00 961.00 C 451.97 965.90 446.73 944.13 449.67 933.67 C 451.51 921.65 454.19 909.00 453.00 897.00
C 443.09 898.32 437.38 909.64 427.22 911.22 C 416.59 912.61 403.39 913.98 395.23 905.77 C 369.49 875.18 368.95 816.85 396.75 787.75 C 414.22 771.12 436.29 787.99 451.90 796.90 C 456.12 787.61 451.79 774.24 450.00 764.00 C 446.93 754.97 453.01 734.62 439.02 735.98 C 388.49 735.00 344.42 702.42 319.25 659.75 C 262.27 556.46 262.74 415.70 317.08 312.08 C 339.72 269.42 384.21 236.43 433.00 233.00 Z"/>
</g>
<g fill="#9E1427" fill-opacity="0.99" stroke="None"><path d="
M 447.97 69.97 
C 456.76 66.53 463.72 58.78 472.93 55.93 C 510.93 44.09 524.93 91.72 523.00 121.00 C 524.89 149.89 508.74 196.71 471.68 182.32 C 462.35 181.86 454.91 167.02 447.00 171.00 C 447.69 183.05 450.14 194.53 450.22 206.78 C 454.27 215.83 447.74 235.26 462.99 234.01 C 483.56 236.49 503.17 243.63 519.92 256.08 C 599.28 315.23 614.48 424.17 608.00 519.00 C 603.64 607.04 563.85 714.57 467.33 734.33 C 466.75 757.43 478.37 781.35 470.31 804.31 C 462.10 828.65 433.87 814.34 421.07 801.93 C 409.77 797.09 401.89 809.66 400.00 819.00 C 395.91 840.95 394.26 867.00 405.23 886.77 C 422.33 906.41 438.77 867.94 458.77 876.23 C 481.17 887.14 472.42 916.44 469.98 935.98 C 469.82 944.60 460.87 965.85 477.00 960.00 C 510.56 958.08 543.63 950.35 574.32 940.32 C 796.76 865.71 914.53 608.58 867.00 384.00 C 835.53 186.45 660.81 8.83 454.00 7.00
C 450.65 27.76 448.65 48.84 447.00 70.00 Z"/>
</g>
<g fill="#9E1427" fill-opacity="0.95" stroke="None"><path d="
M 1073.00 961.00 
C 1073.52 950.04 1072.65 937.68 1073.00 926.00 C 1072.03 915.71 1078.22 896.16 1061.00 901.00 C 1036.33 901.00 1011.67 901.00 987.00 901.00 C 976.34 898.97 962.90 905.62 954.41 899.75 C 963.91 886.29 977.85 873.14 990.25 862.25 C 1037.18 821.43 1093.16 763.05 1067.78 695.22 C 1037.62 609.89 886.08 617.19 867.98 707.98 C 868.38 716.45 858.44 732.42 869.00 736.00 C 880.27 736.64 891.12 738.92 902.33 739.67 C 910.44 738.71 929.70 748.90 929.00 735.00 C 925.64 702.62 961.88 678.53 990.25 694.75 C 1016.26 711.39 1011.05 751.41 993.30 772.30 C 948.22 825.35 882.07 865.36 862.00 935.00 C 863.19 943.36 851.36 962.73 867.00 961.00 C 937.63 963.19 1003.25 960.86 1073.00 961.00 Z"/>
</g>
</svg>

<svg xmlns="http://www.w3.org/2000/svg" width="1080" height="967" viewBox="0 0 1080 967"><path fill="none" fill-opacity="0" stroke="none" stroke-opacity="0" stroke-width=".3" d="M0 967h1080V0H0zm433-734c-48.8 3.4-93.3 36.4-116 79-54.3 103.7-54.7 244.5 2.3 347.8C344.4 702.4 388.5 735 439 736c14-1.4 8 19 11 28 1.8 10.2 6.1 23.6 1.9 32.9-15.6-9-37.7-25.8-55.1-9.1-27.9 29-27.3 87.4-1.6 118 8.2 8.2 21.4 6.8 32 5.4 10.2-1.6 15.9-12.9 25.8-14.2 1.2 12-1.5 24.6-3.3 36.7-3 10.4 2.3 32.2-15.7 27.3-200.7 1.8-372-167.7-410-357-51.4-209 37-448.6 231.3-550.7A444 444 0 0 1 422 7c18.9-4.1 6.7 18 8 28-5 19.6-8.3 61 23 55 10.4-2 16.6-12.3 26.2-15.8C492.8 70.6 499 85.4 500 96c4.4 21.8 6.7 52.4-11 68-11.5 4.6-19.7-7.7-28.7-12.3-9-6-23.7-5.4-29.2 5.4-10 24.3 1.9 50.7 1.9 75.9m14-163c1.6-21.2 3.6-42.2 7-63 206.8 1.8 381.5 179.5 413 377 47.5 224.6-70.2 481.7-292.7 556.3A387 387 0 0 1 477 960c-16.1 5.9-7.2-15.4-7-24 2.4-19.6 11.2-48.9-11.2-59.8-20-8.3-36.5 30.2-53.6 10.6-11-19.8-9.3-45.8-5.2-67.8 1.9-9.3 9.8-22 21-17 12.9 12.3 41.1 26.6 49.3 2.3 8-23-3.6-46.9-3-70C564 714.6 603.6 607 608 519c6.5-94.8-8.7-203.8-88-263a118 118 0 0 0-57-22c-15.3 1.3-8.7-18.2-12.8-27.2 0-12.3-2.5-23.7-3.2-35.8 8-4 15.4 10.9 24.7 11.3 37 14.4 53.2-32.4 51.3-61.3 2-29.3-12-77-50-65-9.3 2.8-16.2 10.5-25 14m625 891c-69.7-.1-135.4 2.2-206 0-15.6 1.7-3.8-17.6-5-26 20-69.6 86.2-109.6 131.3-162.7 17.8-20.9 23-61-3-77.5-28.4-16.3-64.7 7.8-61.3 40.2.7 13.9-18.6 3.7-26.7 4.7-11.2-.8-22-3-33.3-3.7-10.6-3.6-.6-19.5-1-28 18-90.8 169.6-98.1 199.8-12.8 25.4 67.8-30.6 126.2-77.5 167a232 232 0 0 0-35.9 37.5c8.5 6 22-.7 32.6 1.3h74c17.2-4.8 11 14.7 12 25-.3 11.7.5 24 0 35"/><path fill="none" fill-opacity="0" stroke="#9e1427" stroke-width=".3" d="M433 233c0-25.2-12-51.6-2-76 5.6-10.7 20.4-11.4 29.3-5.3 9 4.6 17.2 16.9 28.6 12.2 17.8-15.5 15.6-46.1 11-67.9-.9-10.6-7.1-25.4-20.7-21.8C469.6 77.7 463.4 88 453 90c-31.3 6-28-35.4-23-55-1.3-10 10.9-32.1-8-28a444 444 0 0 0-166.7 46.3C60.9 155.4-27.4 395 24 604c38 189.3 209.3 358.8 410 357 18 4.9 12.7-16.9 15.7-27.3 1.8-12 4.5-24.7 3.3-36.7-10 1.3-15.6 12.6-25.8 14.2-10.6 1.4-23.8 2.8-32-5.4-25.7-30.6-26.2-89 1.6-118 17.4-16.7 39.5.2 55.1 9.1 4.2-9.3-.1-22.7-1.9-32.9-3-9 3-29.4-11-28-50.5-1-94.6-33.6-119.7-76.2-57-103.3-56.6-244.1-2.2-347.7 22.6-42.7 67.1-75.7 115.9-79.1Z"/><path fill="none" fill-opacity="0" stroke="#9e1427" stroke-width=".3" d="M448 70c8.8-3.5 15.7-11.2 25-14 38-12 52 35.7 50 65 1.9 28.9-14.3 75.7-51.3 61.3-9.3-.4-16.8-15.3-24.7-11.3.7 12 3.1 23.5 3.2 35.8 4 9-2.5 28.5 12.8 27.2 20.6 2.5 40.2 9.6 57 22 79.3 59.2 94.5 168.2 88 263-4.4 88-44.1 195.6-140.7 215.3-.6 23.1 11 47 3 70-8.2 24.4-36.4 10-49.2-2.4-11.3-4.8-19.2 7.8-21.1 17.1-4 22-5.7 48 5.2 67.8 17.1 19.6 33.6-18.9 53.6-10.6 22.4 11 13.6 40.2 11.2 59.8-.2 8.6-9.1 29.9 7 24 33.6-2 66.6-9.6 97.3-19.7C796.8 865.7 914.5 608.6 867 384 835.5 186.5 660.8 8.8 454 7a773 773 0 0 0-7 63Z"/><path fill="none" fill-opacity="0" stroke="#9e1427" stroke-opacity=".9" stroke-width=".3" d="M1073 961c.5-11-.3-23.3 0-35-1-10.3 5.2-29.8-12-25h-74c-10.7-2-24.1 4.6-32.6-1.2a232 232 0 0 1 35.9-37.5c46.9-40.9 102.9-99.2 77.5-167C1037.6 609.8 886 617.1 868 708c.4 8.5-9.6 24.4 1 28 11.3.6 22.1 3 33.3 3.7 8.1-1 27.4 9.2 26.7-4.7-3.4-32.4 32.9-56.5 61.3-40.2 26 16.6 20.8 56.6 3 77.5-45 53-111.2 93-131.3 162.7 1.2 8.4-10.6 27.7 5 26 70.6 2.2 136.3-.1 206 0Z"/><path fill="none" fill-opacity="0" d="M0 967h1080V0H0zm433-734c-48.8 3.4-93.3 36.4-116 79-54.3 103.7-54.7 244.5 2.3 347.8C344.4 702.4 388.5 735 439 736c14-1.4 8 19 11 28 1.8 10.2 6.1 23.6 1.9 32.9-15.6-9-37.7-25.8-55.1-9.1-27.9 29-27.3 87.4-1.6 118 8.2 8.2 21.4 6.8 32 5.4 10.2-1.6 15.9-12.9 25.8-14.2 1.2 12-1.5 24.6-3.3 36.7-3 10.4 2.3 32.2-15.7 27.3-200.7 1.8-372-167.7-410-357-51.4-209 37-448.6 231.3-550.7A444 444 0 0 1 422 7c18.9-4.1 6.7 18 8 28-5 19.6-8.3 61 23 55 10.4-2 16.6-12.3 26.2-15.8C492.8 70.6 499 85.4 500 96c4.4 21.8 6.7 52.4-11 68-11.5 4.6-19.7-7.7-28.7-12.3-9-6-23.7-5.4-29.2 5.4-10 24.3 1.9 50.7 1.9 75.9m14-163c1.6-21.2 3.6-42.2 7-63 206.8 1.8 381.5 179.5 413 377 47.5 224.6-70.2 481.7-292.7 556.3A387 387 0 0 1 477 960c-16.1 5.9-7.2-15.4-7-24 2.4-19.6 11.2-48.9-11.2-59.8-20-8.3-36.5 30.2-53.6 10.6-11-19.8-9.3-45.8-5.2-67.8 1.9-9.3 9.8-22 21-17 12.9 12.3 41.1 26.6 49.3 2.3 8-23-3.6-46.9-3-70C564 714.6 603.6 607 608 519c6.5-94.8-8.7-203.8-88-263a118 118 0 0 0-57-22c-15.3 1.3-8.7-18.2-12.8-27.2 0-12.3-2.5-23.7-3.2-35.8 8-4 15.4 10.9 24.7 11.3 37 14.4 53.2-32.4 51.3-61.3 2-29.3-12-77-50-65-9.3 2.8-16.2 10.5-25 14m625 891c-69.7-.1-135.4 2.2-206 0-15.6 1.7-3.8-17.6-5-26 20-69.6 86.2-109.6 131.3-162.7 17.8-20.9 23-61-3-77.5-28.4-16.3-64.7 7.8-61.3 40.2.7 13.9-18.6 3.7-26.7 4.7-11.2-.8-22-3-33.3-3.7-10.6-3.6-.6-19.5-1-28 18-90.8 169.6-98.1 199.8-12.8 25.4 67.8-30.6 126.2-77.5 167a232 232 0 0 0-35.9 37.5c8.5 6 22-.7 32.6 1.3h74c17.2-4.8 11 14.7 12 25-.3 11.7.5 24 0 35"/><path fill="#9e1427" d="M433 233c0-25.2-12-51.6-2-76 5.6-10.7 20.4-11.4 29.3-5.3 9 4.6 17.2 16.9 28.6 12.2 17.8-15.5 15.6-46.1 11-67.9-.9-10.6-7.1-25.4-20.7-21.8C469.6 77.7 463.4 88 453 90c-31.3 6-28-35.4-23-55-1.3-10 10.9-32.1-8-28a444 444 0 0 0-166.7 46.3C60.9 155.4-27.4 395 24 604c38 189.3 209.3 358.8 410 357 18 4.9 12.7-16.9 15.7-27.3 1.8-12 4.5-24.7 3.3-36.7-10 1.3-15.6 12.6-25.8 14.2-10.6 1.4-23.8 2.8-32-5.4-25.7-30.6-26.2-89 1.6-118 17.4-16.7 39.5.2 55.1 9.1 4.2-9.3-.1-22.7-1.9-32.9-3-9 3-29.4-11-28-50.5-1-94.6-33.6-119.7-76.2-57-103.3-56.6-244.1-2.2-347.7 22.6-42.7 67.1-75.7 115.9-79.1"/><path fill="#9e1427" d="M448 70c8.8-3.5 15.7-11.2 25-14 38-12 52 35.7 50 65 1.9 28.9-14.3 75.7-51.3 61.3-9.3-.4-16.8-15.3-24.7-11.3.7 12 3.1 23.5 3.2 35.8 4 9-2.5 28.5 12.8 27.2 20.6 2.5 40.2 9.6 57 22 79.3 59.2 94.5 168.2 88 263-4.4 88-44.1 195.6-140.7 215.3-.6 23.1 11 47 3 70-8.2 24.4-36.4 10-49.2-2.4-11.3-4.8-19.2 7.8-21.1 17.1-4 22-5.7 48 5.2 67.8 17.1 19.6 33.6-18.9 53.6-10.6 22.4 11 13.6 40.2 11.2 59.8-.2 8.6-9.1 29.9 7 24 33.6-2 66.6-9.6 97.3-19.7C796.8 865.7 914.5 608.6 867 384 835.5 186.5 660.8 8.8 454 7a773 773 0 0 0-7 63Z"/><path fill="#9e1427" fill-opacity=".9" d="M1073 961c.5-11-.3-23.3 0-35-1-10.3 5.2-29.8-12-25h-74c-10.7-2-24.1 4.6-32.6-1.2a232 232 0 0 1 35.9-37.5c46.9-40.9 102.9-99.2 77.5-167C1037.6 609.8 886 617.1 868 708c.4 8.5-9.6 24.4 1 28 11.3.6 22.1 3 33.3 3.7 8.1-1 27.4 9.2 26.7-4.7-3.4-32.4 32.9-56.5 61.3-40.2 26 16.6 20.8 56.6 3 77.5-45 53-111.2 93-131.3 162.7 1.2 8.4-10.6 27.7 5 26 70.6 2.2 136.3-.1 206 0"/></svg>
